src/assets/icons/letters,simple,sans-x.svg

<svg width="48" height="48" viewBox="0 0 48 48" fill="none" xmlns="http://www.w3.org/2000/svg">
<rect opacity="0.2" x="5" y="5" width="38" height="38" rx="4" fill="black"/>
<path d="M19.3489 13.4545H13.9437L20.8681 24.7273L13.8116 36H19.2718L23.8954 28.305H24.0716L28.6951 36H34.1774L27.1429 24.7273L34.0233 13.4545H28.6401L24.0716 21.1385H23.8954L19.3489 13.4545Z" fill="black"/>
</svg>

<svg xmlns="http://www.w3.org/2000/svg" width="48" height="48" fill="none" viewBox="0 0 48 48">
  <rect width="38" height="38" x="5" y="5" fill="#000" opacity=".2" rx="4"/>
  <path fill="#000" d="M19.349 13.454h-5.405l6.924 11.273L13.812 36h5.46l4.623-7.695h.177L28.695 36h5.482l-7.034-11.273 6.88-11.273H28.64l-4.568 7.684h-.177l-4.546-7.684z"/>
</svg>
